build/assets/img/svg/icon-facebook.svg

<svg width="60" height="60" viewBox="0 0 60 60" fill="none" xmlns="http://www.w3.org/2000/svg">
<rect width="60" height="60" rx="10" fill="#A62E41"/>
<path d="M39 60V38.6667H46.1111L47.8889 29.7778H39V26.2222C39 22.6667 40.7813 20.8889 44.3333 20.8889H47.8889V12C46.1111 12 43.9067 12 40.7778 12C34.2444 12 30.1111 17.1218 30.1111 24.4444V29.7778H23V38.6667H30.1111V60H39Z" fill="white"/>
</svg>

<svg width="60" height="60" fill="none" xmlns="http://www.w3.org/2000/svg"><rect width="60" height="60" rx="10" fill="#A62E41"/><path d="M39 60V38.667h7.111l1.778-8.89H39v-3.555c0-3.555 1.781-5.333 5.333-5.333h3.556V12h-7.111c-6.534 0-10.667 5.122-10.667 12.444v5.334H23v8.889h7.111V60H39z" fill="#fff"/></svg>
